X: 584
T: Fun sidahen
%%abc-version 2.0
%%abcx-abcm2ps-target-version 5.9.1 (29 Sep 2008)
%%abc-creator hum2abc beta
%%abcx-conversion-date 2013/10/02 07:52:30
%%abc-edited-by Helmut Schaffrath
%%humdrum-veritas 3870229793
%%humdrum-veritas-data 846590430
%%continueall 1
%%barnumbers 0
L: 1/16
M: 2/4
K: F
d f d c B2 A G [I:setbarnb 1]| 
c d c FG4 | 
d f d c B2 A c | 
G A G F E2 D2 | 
F2 F G c2 c2 | 
G A G F E2 D2 | 
d f d c2< B2 c | 
d c B Ac4 |]  



